src/svg/featured/ticketmaster.svg

<svg fill="none" height="28" viewBox="0 0 195 28" width="195" xmlns="http://www.w3.org/2000/svg"><g fill="#fff"><path d="m40.3587-.00012207h4.8609l-3.2296 15.30652207h.075l6.7828-6.78365h6.3106l-8.9579 8.52435 5.6202 10.1568h-5.4767l-4.8257-9.9027h-.0709l-2.1043 9.9027h-4.7516z"/><path d="m17.2668.468681h4.8609l-1.0156 4.644999h-4.8612z"/><path d="m15.4891 8.52275h4.8613l-3.9908 18.68115h-4.8619z"/><path d="m4.27987 8.52204h-3.518107l-.761763 3.55496h3.51811l-1.37912 6.3129c-.32571 1.4857-.61609 2.8998-.61609 4.3492 0 3.5929 2.32249 4.9001 5.62304 4.9001.68454 0 1.44087-.1717 2.15091-.333.1563-.0355.31045-.0705.461-.103l.83305-3.7726c-.61608.2538-1.48573.4345-2.35811.4345-1.08685 0-1.84857-.6898-1.84857-1.8139 0-.7246.1084-1.3763.21688-1.812l1.77763-8.1622h4.35277l.7611-3.55496h-4.35175l1.19715-5.54991-5.22417 1.70635z"/><path clip-rule="evenodd" d="m126.693 24.3542h.073l-.508 2.867h4.098c.185-1.4921.624-3.6678 1.068-5.8703v-.0015c.604-2.9934 1.218-6.036 1.218-7.4783 0-4.38735-3.52-5.76679-7.254-5.76679-2.177 0-4.282.39946-6.347 1.12405l-.69 3.88164c1.922-.9068 3.99-1.4507 6.129-1.4507 1.706 0 3.737.5439 3.737 2.431 0 .5416 0 1.0855-.146 1.5947h-1.704c-4.571 0-11.462.4726-11.462 6.6396 0 3.4441 2.394 5.3311 5.765 5.3311 2.687 0 4.355-1.1975 6.023-3.3015zm.834-5.769c-.761 3.0136-1.884 5.5155-5.515 5.5155-1.233 0-2.463-.6536-2.463-1.9605 0-3.1537 3.916-3.555 6.274-3.555z" fill-rule="evenodd"/><path d="m31.4726 11.8604c1.3431 0 2.6125.3254 3.555.9422l1.1972-3.98985c-1.3057-.39753-3.0461-.72419-4.8614-.72419-6.7095 0-11.0253 4.96944-11.0253 11.49764 0 4.825 3.1186 8.0537 7.9424 8.0537 1.596 0 3.1921-.1459 4.6793-.8705l.5449-3.8473c-1.2685.6174-2.7561.9437-3.9539.9437-3.3381 0-4.1348-2.431-4.1348-4.8597 0-3.5191 2.1762-7.1457 6.0566-7.1457z"/><path d="m76.1977 8.52273h-3.5181l-.7617 3.55497h3.5174l-1.3769 6.3129c-.3275 1.4857-.6176 2.8998-.6176 4.3492 0 3.5929 2.3222 4.9001 5.6227 4.9001.6837 0 1.4399-.1716 2.1503-.3328.1568-.0355.3114-.0706.4625-.1032l.8322-3.7726c-.6159.2538-1.486.4345-2.3561.4345-1.0889 0-1.8497-.6899-1.8497-1.8139 0-.7246.1075-1.3763.2163-1.812l1.7778-8.1622h4.3523l.7627-3.55497h-4.353l1.197-5.54991-5.2241 1.70635z"/><path d="m71.0536 15.1969c0-4.7502-3.0464-7.10834-7.6529-7.10834-6.1301 0-10.6294 5.58614-10.6294 11.38834 0 5.5498 3.6278 8.163 8.9978 8.163 1.9939 0 4.0619-.4723 5.948-1.0531l.6162-3.847c-1.8133.8375-3.737 1.3451-5.7319 1.3451-3.1082 0-4.925-1.1054-5.1576-4.0415h-.0038c-.0028-.0551-.0064-.1098-.01-.1647-.0076-.1148-.0153-.2305-.0153-.3514l.0002-.0215.0006-.0308c.0004-.0173.0008-.0347.0008-.0518l-.0001-.0112-.0002-.0044-.001-.0245-.0003-.0144h.0035c.0218-1.2785.3024-2.5401.7908-3.706.9342-2.3768 2.2534-4.0191 5.1189-4.0191 2.0299 0 3.0832 1.1224 3.0832 3.1189 0 .4344-.0372.8339-.1084 1.2684h-6.6516c-.4316 1.4684-.5063 2.4518-.5151 3.3378h11.4453c.2904-1.3794.4723-2.7573.4723-4.1718z"/><path d="m87.9068 8.52275c-.1082.58229-.2543 1.34312-.3979 2.06805l-3.4095 16.6131h4.8591l1.9235-8.8864.0351-.1428c.6158-2.5083 1.5501-6.3142 4.7877-6.3142 1.2334 0 2.2867.8693 2.2867 2.2487 0 1.1225-.3616 2.8651-.6166 3.9894l-1.959 9.1053h4.8611l1.921-8.8864.061-.252c.613-2.5373 1.5-6.205 4.765-6.205 1.233 0 2.284.8693 2.284 2.2487 0 1.1225-.362 2.8651-.617 3.9894l-1.959 9.1053h4.861l1.959-8.9245c.397-1.5223.835-3.4094.835-5.0773 0-2.8289-2.396-5.11353-5.188-5.11353-2.61 0-5.331 1.12398-6.565 3.55503h-.072c-.255-2.25-2.54-3.55503-4.7529-3.55503-2.2851 0-4.4241 1.01647-5.7301 2.93663h-.0726l.4359-2.50245z"/><path d="m147.079 12.3265c-.522-.2851-1.863-.6829-3.241-.6829-1.452 0-3.265.3978-3.265 1.8836 0 .9864 1.103 1.7126 2.387 2.5577 1.787 1.1763 3.924 2.5829 3.924 5.2424 0 4.8623-4.243 6.3126-8.413 6.3126-1.961 0-3.92-.29-5.696-1.1259l1.053-3.8804c1.376.7599 2.756 1.4513 4.643 1.4513 1.629 0 3.336-.5454 3.336-2.0677 0-1.3404-1.251-2.142-2.639-3.0316-1.73-1.1088-3.673-2.3542-3.673-4.9496 0-4.38703 4.244-5.94744 8.088-5.94744 1.779 0 3.593.32666 4.549.5751z"/><path d="m153.705 8.52273h-3.519l-.763 3.55497h3.519l-1.378 6.3129c-.325 1.4857-.618 2.8998-.618 4.3492 0 3.5929 2.322 4.9001 5.624 4.9001.683 0 1.437-.1714 2.147-.3326.157-.0356.311-.0708.463-.1034l.835-3.7726c-.617.2538-1.488.4345-2.358.4345-1.087 0-1.851-.6899-1.851-1.8139 0-.7246.11-1.3763.218-1.812l1.777-8.1622h4.355l.761-3.55497h-4.353l1.196-5.54991-5.222 1.70635z"/><path d="m183.139 11.0252c.144-.7964.29-1.6316.436-2.50245h4.643l-.654 3.51865h.074c.872-2.0311 3.263-3.95283 5.513-3.95283.617 0 1.269.03463 1.849.18033l-1.015 4.7509c-.543-.181-1.235-.29-1.85-.29-3.448 0-5.115 3.0839-5.731 6.095l-1.741 8.3791h-4.86z"/><path d="m172.113 8.08856c4.606 0 7.653 2.35814 7.653 7.10834 0 1.4145-.181 2.7924-.472 4.1718h-11.448c.011-.886.084-1.8694.518-3.3378h6.651c.071-.4345.109-.834.109-1.2684 0-1.9965-1.054-3.1189-3.085-3.1189-2.865 0-4.186 1.6423-5.119 4.0191-.488 1.1659-.769 2.4275-.791 3.706h-.002c0 .0099 0 .0186.001.0272.001.0087.001.0174.001.0273 0 .0344-.002.0694-.002.1041 0 .1147.007.2245.014.3335.004.061.007.1216.01.1826h.003c.235 2.9361 2.05 4.0415 5.161 4.0415 1.995 0 3.917-.5076 5.73-1.3451l-.615 3.847c-1.887.5808-3.956 1.0531-5.949 1.0531-5.37 0-8.997-2.6132-8.997-8.163 0-5.8022 4.5-11.38834 10.629-11.38834z"/></g></svg>

<svg width="195" height="28" viewBox="0 0 195 28" fill="none" xmlns="http://www.w3.org/2000/svg">
<path d="M40.3587 -0.00012207H45.2196L41.99 15.3064H42.065L48.8478 8.52275H55.1584L46.2005 17.0471L51.8207 27.2039H46.344L41.5183 17.3012H41.4474L39.3431 27.2039H34.5915L40.3587 -0.00012207Z" fill="white"/>
<path d="M17.2668 0.468681H22.1277L21.1121 5.11368H16.2509L17.2668 0.468681Z" fill="white"/>
<path d="M15.4891 8.52275H20.3504L16.3596 27.2039H11.4977L15.4891 8.52275Z" fill="white"/>
<path d="M4.27987 8.52204H0.761763L0 12.077H3.51811L2.13899 18.3899C1.81328 19.8756 1.5229 21.2897 1.5229 22.7391C1.5229 26.332 3.84539 27.6392 7.14594 27.6392C7.83048 27.6392 8.58681 27.4675 9.29685 27.3062C9.45315 27.2707 9.6073 27.2357 9.75785 27.2032L10.5909 23.4306C9.97482 23.6844 9.10517 23.8651 8.23279 23.8651C7.14594 23.8651 6.38422 23.1753 6.38422 22.0512C6.38422 21.3266 6.49262 20.6749 6.6011 20.2392L8.37873 12.077H12.7315L13.4926 8.52204H9.14085L10.338 2.97213L5.11383 4.67848L4.27987 8.52204Z" fill="white"/>
<path fill-rule="evenodd" clip-rule="evenodd" d="M126.693 24.3542H126.766L126.258 27.2212H130.356C130.541 25.7291 130.98 23.5534 131.424 21.3509L131.424 21.3494C132.028 18.356 132.642 15.3134 132.642 13.8711C132.642 9.48375 129.122 8.10431 125.388 8.10431C123.211 8.10431 121.106 8.50377 119.041 9.22836L118.351 13.11C120.273 12.2032 122.341 11.6593 124.48 11.6593C126.186 11.6593 128.217 12.2032 128.217 14.0903C128.217 14.6319 128.217 15.1758 128.071 15.685H126.367C121.796 15.685 114.905 16.1576 114.905 22.3246C114.905 25.7687 117.299 27.6557 120.67 27.6557C123.357 27.6557 125.025 26.4582 126.693 24.3542ZM127.527 18.5852C126.766 21.5988 125.643 24.1007 122.012 24.1007C120.779 24.1007 119.549 23.4471 119.549 22.1402C119.549 18.9865 123.465 18.5852 125.823 18.5852H127.527Z" fill="white"/>
<path d="M31.4726 11.8604C32.8157 11.8604 34.0851 12.1858 35.0276 12.8026L36.2248 8.81275C34.9191 8.41522 33.1787 8.08856 31.3634 8.08856C24.6539 8.08856 20.3381 13.058 20.3381 19.5862C20.3381 24.4112 23.4567 27.6399 28.2805 27.6399C29.8765 27.6399 31.4726 27.494 32.9598 26.7694L33.5047 22.9221C32.2362 23.5395 30.7486 23.8658 29.5508 23.8658C26.2127 23.8658 25.416 21.4348 25.416 19.0061C25.416 15.487 27.5922 11.8604 31.4726 11.8604Z" fill="white"/>
<path d="M76.1977 8.52273H72.6796L71.9179 12.0777H75.4353L74.0584 18.3906C73.7309 19.8763 73.4408 21.2904 73.4408 22.7398C73.4408 26.3327 75.763 27.6399 79.0635 27.6399C79.7472 27.6399 80.5034 27.4683 81.2138 27.3071C81.3706 27.2716 81.5252 27.2365 81.6763 27.2039L82.5085 23.4313C81.8926 23.6851 81.0225 23.8658 80.1524 23.8658C79.0635 23.8658 78.3027 23.1759 78.3027 22.0519C78.3027 21.3273 78.4102 20.6756 78.519 20.2399L80.2968 12.0777H84.6491L85.4118 8.52273H81.0588L82.2558 2.97282L77.0317 4.67917L76.1977 8.52273Z" fill="white"/>
<path d="M71.0536 15.1969C71.0536 10.4467 68.0072 8.08856 63.4007 8.08856C57.2706 8.08856 52.7713 13.6747 52.7713 19.4769C52.7713 25.0267 56.3991 27.6399 61.7691 27.6399C63.763 27.6399 65.831 27.1676 67.7171 26.5868L68.3333 22.7398C66.52 23.5773 64.5963 24.0849 62.6014 24.0849C59.4932 24.0849 57.6764 22.9795 57.4438 20.0434H57.44C57.4372 19.9883 57.4336 19.9336 57.43 19.8787C57.4224 19.7639 57.4147 19.6482 57.4147 19.5273L57.4149 19.5058L57.4155 19.475C57.4159 19.4577 57.4163 19.4403 57.4163 19.4232L57.4162 19.412L57.416 19.4076L57.415 19.3831L57.4147 19.3687H57.4182C57.44 18.0902 57.7206 16.8286 58.209 15.6627C59.1432 13.2859 60.4624 11.6436 63.3279 11.6436C65.3578 11.6436 66.4111 12.766 66.4111 14.7625C66.4111 15.1969 66.3739 15.5964 66.3027 16.0309H59.6511C59.2195 17.4993 59.1448 18.4827 59.136 19.3687H70.5813C70.8717 17.9893 71.0536 16.6114 71.0536 15.1969Z" fill="white"/>
<path d="M87.9068 8.52275C87.7986 9.10504 87.6525 9.86587 87.5089 10.5908L84.0994 27.2039H88.9585L90.882 18.3175L90.9171 18.1747C91.5329 15.6664 92.4672 11.8605 95.7048 11.8605C96.9382 11.8605 97.9915 12.7298 97.9915 14.1092C97.9915 15.2317 97.6299 16.9743 97.3749 18.0986L95.4159 27.2039H100.277L102.198 18.3175L102.259 18.0655C102.872 15.5282 103.759 11.8605 107.024 11.8605C108.257 11.8605 109.308 12.7298 109.308 14.1092C109.308 15.2317 108.946 16.9743 108.691 18.0986L106.732 27.2039H111.593L113.552 18.2794C113.949 16.7571 114.387 14.87 114.387 13.2021C114.387 10.3732 111.991 8.08857 109.199 8.08857C106.589 8.08857 103.868 9.21255 102.634 11.6436H102.562C102.307 9.3936 100.022 8.08857 97.8091 8.08857C95.524 8.08857 93.385 9.10504 92.079 11.0252H92.0064L92.4423 8.52275H87.9068Z" fill="white"/>
<path d="M147.079 12.3265C146.557 12.0414 145.216 11.6436 143.838 11.6436C142.386 11.6436 140.573 12.0414 140.573 13.5272C140.573 14.5136 141.676 15.2398 142.96 16.0849C144.747 17.2612 146.884 18.6678 146.884 21.3273C146.884 26.1896 142.641 27.6399 138.471 27.6399C136.51 27.6399 134.551 27.3499 132.775 26.514L133.828 22.6336C135.204 23.3935 136.584 24.0849 138.471 24.0849C140.1 24.0849 141.807 23.5395 141.807 22.0172C141.807 20.6768 140.556 19.8752 139.168 18.9856C137.438 17.8768 135.495 16.6314 135.495 14.036C135.495 9.64897 139.739 8.08856 143.583 8.08856C145.362 8.08856 147.176 8.41522 148.132 8.66366L147.079 12.3265Z" fill="white"/>
<path d="M153.705 8.52273H150.186L149.423 12.0777H152.942L151.564 18.3906C151.239 19.8763 150.946 21.2904 150.946 22.7398C150.946 26.3327 153.268 27.6399 156.57 27.6399C157.253 27.6399 158.007 27.4685 158.717 27.3073C158.874 27.2717 159.028 27.2365 159.18 27.2039L160.015 23.4313C159.398 23.6851 158.527 23.8658 157.657 23.8658C156.57 23.8658 155.806 23.1759 155.806 22.0519C155.806 21.3273 155.916 20.6756 156.024 20.2399L157.801 12.0777H162.156L162.917 8.52273H158.564L159.76 2.97282L154.538 4.67917L153.705 8.52273Z" fill="white"/>
<path d="M183.139 11.0252C183.283 10.2288 183.429 9.3936 183.575 8.52275H188.218L187.564 12.0414H187.638C188.51 10.0103 190.901 8.08857 193.151 8.08857C193.768 8.08857 194.42 8.1232 195 8.2689L193.985 13.0198C193.442 12.8388 192.75 12.7298 192.135 12.7298C188.687 12.7298 187.02 15.8137 186.404 18.8248L184.663 27.2039H179.803L183.139 11.0252Z" fill="white"/>
<path d="M172.113 8.08856C176.719 8.08856 179.766 10.4467 179.766 15.1969C179.766 16.6114 179.585 17.9893 179.294 19.3687H167.846C167.857 18.4827 167.93 17.4993 168.364 16.0309H175.015C175.086 15.5964 175.124 15.1969 175.124 14.7625C175.124 12.766 174.07 11.6436 172.039 11.6436C169.174 11.6436 167.853 13.2859 166.92 15.6627C166.432 16.8286 166.151 18.0902 166.129 19.3687H166.127C166.127 19.3786 166.127 19.3873 166.128 19.3959C166.129 19.4046 166.129 19.4133 166.129 19.4232C166.129 19.4576 166.127 19.4926 166.127 19.5273C166.127 19.642 166.134 19.7518 166.141 19.8608C166.145 19.9218 166.148 19.9824 166.151 20.0434H166.154C166.389 22.9795 168.204 24.0849 171.315 24.0849C173.31 24.0849 175.232 23.5773 177.045 22.7398L176.43 26.5868C174.543 27.1676 172.474 27.6399 170.481 27.6399C165.111 27.6399 161.484 25.0267 161.484 19.4769C161.484 13.6747 165.984 8.08856 172.113 8.08856Z" fill="white"/>
</svg>
